src/view/frontend/web/svg/heroicons/solid/refresh.svg

<svg viewBox="0 0 20 20" fill="currentColor" xmlns="http://www.w3.org/2000/svg">
<path fill-rule="evenodd" clip-rule="evenodd" d="M4 2C4.55228 2 5 2.44772 5 3V5.10125C6.27009 3.80489 8.04052 3 10 3C13.0494 3 15.641 4.94932 16.6014 7.66675C16.7855 8.18747 16.5126 8.75879 15.9918 8.94284C15.4711 9.12689 14.8998 8.85396 14.7157 8.33325C14.0289 6.38991 12.1755 5 10 5C8.36507 5 6.91204 5.78502 5.99935 7H9C9.55228 7 10 7.44772 10 8C10 8.55228 9.55228 9 9 9H4C3.44772 9 3 8.55228 3 8V3C3 2.44772 3.44772 2 4 2ZM4.00817 11.0572C4.52888 10.8731 5.1002 11.146 5.28425 11.6668C5.97112 13.6101 7.82453 15 10 15C11.6349 15 13.088 14.215 14.0006 13L11 13C10.4477 13 10 12.5523 10 12C10 11.4477 10.4477 11 11 11H16C16.2652 11 16.5196 11.1054 16.7071 11.2929C16.8946 11.4804 17 11.7348 17 12V17C17 17.5523 16.5523 18 16 18C15.4477 18 15 17.5523 15 17V14.8987C13.7299 16.1951 11.9595 17 10 17C6.95059 17 4.35905 15.0507 3.39857 12.3332C3.21452 11.8125 3.48745 11.2412 4.00817 11.0572Z" />
</svg>

<svg xmlns="http://www.w3.org/2000/svg" fill="currentColor" viewBox="0 0 20 20"><path fill-rule="evenodd" d="M4 2a1 1 0 0 1 1 1v2.101a7.002 7.002 0 0 1 11.601 2.566 1 1 0 1 1-1.885.666A5.002 5.002 0 0 0 5.999 7H9a1 1 0 0 1 0 2H4a1 1 0 0 1-1-1V3a1 1 0 0 1 1-1Zm.008 9.057a1 1 0 0 1 1.276.61A5.002 5.002 0 0 0 14.001 13H11a1 1 0 1 1 0-2h5a1 1 0 0 1 1 1v5a1 1 0 1 1-2 0v-2.101a7.002 7.002 0 0 1-11.601-2.566 1 1 0 0 1 .61-1.276Z" clip-rule="evenodd"/></svg>
